frontend/src/assets/svgs/background/top-right.svg

<svg width="323" height="241" viewBox="0 0 323 241" fill="none" xmlns="http://www.w3.org/2000/svg">
<ellipse cx="251.144" cy="-10.1234" rx="189.813" ry="189.273" transform="rotate(24.4579 251.144 -10.1234)" fill="url(#paint0_radial_689_112)"/>
<circle cx="251.308" cy="-10.0489" r="154.729" transform="rotate(24.4579 251.308 -10.0489)" fill="#EA1889"/>
<path d="M392.153 54.0129C407.695 19.8428 410.285 -18.8121 399.44 -54.7501C388.595 -90.688 365.055 -121.458 333.206 -141.327C301.357 -161.196 263.371 -168.809 226.325 -162.748C189.279 -156.687 155.699 -137.364 131.843 -108.381C107.987 -79.398 95.4808 -42.7305 96.6547 -5.21024C97.8286 32.31 112.603 68.124 138.224 95.5592C163.845 122.994 198.567 140.18 235.919 143.913C273.272 147.647 310.708 137.674 341.252 115.853L251.308 -10.0489L392.153 54.0129Z" fill="#9F18D9"/>
<path d="M392.153 54.0129C406.255 23.0081 409.733 -11.7835 402.046 -44.9661C394.36 -78.1487 375.939 -107.868 349.641 -129.514C323.342 -151.16 290.636 -163.524 256.595 -164.688C222.553 -165.852 189.079 -155.75 161.364 -135.95C133.649 -116.151 113.241 -87.759 103.307 -55.1788C93.3722 -22.5986 94.4656 12.3493 106.417 44.2447C118.369 76.1402 140.512 103.201 169.411 121.229C198.309 139.258 232.349 147.247 266.251 143.957L251.308 -10.0489L392.153 54.0129Z" fill="#57F2B9"/>
<path d="M392.153 54.0129C404.823 26.1564 408.948 -4.83161 404.007 -35.0326C399.066 -65.2336 385.28 -93.2911 364.393 -115.657C343.505 -138.023 316.455 -153.693 286.662 -160.685C256.869 -167.677 225.671 -165.678 197.015 -154.94C168.358 -144.201 143.529 -125.207 125.668 -100.357C107.806 -75.5079 97.7149 -45.9201 96.6693 -15.3354C95.6238 15.2493 103.671 45.4572 119.794 71.4683C135.916 97.4794 159.39 118.126 187.246 130.796L251.308 -10.0489L392.153 54.0129Z" fill="#EA1889"/>
<path d="M392.153 54.0129C403.398 29.2895 407.937 2.04157 405.314 -24.9921C402.691 -52.0258 392.998 -77.8928 377.21 -99.9931C361.421 -122.093 340.093 -139.648 315.37 -150.894C290.647 -162.139 263.399 -166.678 236.365 -164.055C209.331 -161.432 183.464 -151.739 161.364 -135.95C139.264 -120.162 121.709 -98.8342 110.464 -74.1107C99.2184 -49.3873 94.6792 -22.1394 97.3023 4.89426C99.9254 31.928 109.618 57.7949 125.407 79.8953L251.308 -10.0489L392.153 54.0129Z" fill="#9F18D9"/>
<path d="M392.153 54.0129C401.979 32.409 406.704 8.83429 405.962 -14.8877C405.22 -38.6096 399.03 -61.8429 387.873 -82.7902C376.715 -103.737 360.888 -121.837 341.617 -135.69C322.345 -149.542 300.145 -158.775 276.734 -162.675C253.323 -166.575 229.329 -165.037 206.607 -158.18C183.886 -151.324 163.046 -139.332 145.7 -123.133C128.354 -106.934 114.968 -86.9622 106.575 -64.7619C98.183 -42.5617 95.0102 -18.7284 97.3023 4.89424L251.308 -10.0489L392.153 54.0129Z" fill="#57F2B9"/>
<path d="M392.153 54.0129C409.143 16.6585 410.599 -25.9152 396.199 -64.3426C381.799 -102.77 352.724 -133.903 315.37 -150.894C278.016 -167.884 235.442 -169.339 197.015 -154.94C158.587 -140.54 127.454 -111.465 110.464 -74.1108L251.308 -10.0489L392.153 54.0129Z" fill="#EA1889"/>
<path d="M392.153 54.0129C406.255 23.0081 409.733 -11.7835 402.046 -44.9661C394.36 -78.1487 375.939 -107.868 349.641 -129.514C323.342 -151.16 290.636 -163.524 256.595 -164.688C222.553 -165.852 189.079 -155.75 161.364 -135.95L251.308 -10.0489L392.153 54.0129Z" fill="#9F18D9"/>
<path d="M392.153 54.0129C403.398 29.2895 407.937 2.04157 405.314 -24.9921C402.691 -52.0258 392.998 -77.8928 377.21 -99.9931C361.421 -122.093 340.093 -139.648 315.37 -150.894C290.647 -162.139 263.399 -166.678 236.365 -164.055L251.308 -10.0489L392.153 54.0129Z" fill="#57F2B9"/>
<path d="M392.153 54.0129C400.566 35.5169 405.253 15.545 405.947 -4.76247C406.641 -25.0699 403.329 -45.3153 396.199 -64.3426C389.069 -83.37 378.261 -100.807 364.393 -115.657C350.524 -130.508 333.866 -142.481 315.37 -150.894L251.308 -10.0489L392.153 54.0129Z" fill="#EA1889"/>
<path d="M392.153 54.0129C403.398 29.2895 407.937 2.04157 405.314 -24.9921C402.691 -52.0258 392.998 -77.8928 377.21 -99.9931L251.308 -10.0489L392.153 54.0129Z" fill="#9F18D9"/>
<path d="M392.153 54.0129C403.398 29.2895 407.937 2.04157 405.314 -24.9921L251.308 -10.0489L392.153 54.0129Z" fill="#57F2B9"/>
<circle cx="251.219" cy="-10.2872" r="25.0086" transform="rotate(24.4579 251.219 -10.2872)" fill="#D396ED"/>
<circle cx="251.219" cy="-10.2871" r="14.9332" transform="rotate(24.4579 251.219 -10.2871)" fill="#57F2B9"/>
<defs>
<radialGradient id="paint0_radial_689_112" cx="0" cy="0" r="1" gradientUnits="userSpaceOnUse" gradientTransform="translate(136.852 -335.173) rotate(47.6614) scale(659.165 661.044)">
<stop offset="0.169475" stop-color="#4B00CC"/>
<stop offset="1" stop-color="#4B00CC" stop-opacity="0"/>
</radialGradient>
</defs>
</svg>

<svg fill="none" xmlns="http://www.w3.org/2000/svg" viewBox="0 0 323 189">
  <ellipse cx="251.144" cy="-10.123" rx="189.813" ry="189.273" transform="rotate(24.458 251.144 -10.123)" fill="url(#a)"/>
  <circle cx="251.308" cy="-10.049" r="154.729" transform="rotate(24.458 251.308 -10.049)" fill="#EA1889"/>
  <path d="M392.153 54.013a154.728 154.728 0 0 0-260.31-162.394 154.73 154.73 0 0 0 209.409 224.234L251.308-10.049l140.845 64.062Z" fill="#9F18D9"/>
  <path d="M392.153 54.013a154.727 154.727 0 0 0-42.512-183.527 154.726 154.726 0 0 0-246.334 74.335 154.731 154.731 0 0 0 66.104 176.408 154.719 154.719 0 0 0 96.84 22.728L251.308-10.049l140.845 64.062Z" fill="#57F2B9"/>
  <path d="M392.153 54.013a154.734 154.734 0 0 0-27.76-169.67 154.73 154.73 0 1 0-177.147 246.453l64.062-140.845 140.845 64.062Z" fill="#EA1889"/>
  <path d="M392.153 54.013a154.732 154.732 0 0 0-76.783-204.907 154.73 154.73 0 0 0-189.963 230.79L251.308-10.05l140.845 64.062Z" fill="#9F18D9"/>
  <path d="M392.153 54.013a154.736 154.736 0 0 0-4.28-136.803A154.734 154.734 0 0 0 145.7-123.133 154.734 154.734 0 0 0 97.302 4.894l154.006-14.943 140.845 64.062Z" fill="#57F2B9"/>
  <path d="M392.153 54.013A154.728 154.728 0 1 0 110.464-74.111l140.844 64.062 140.845 64.062Z" fill="#EA1889"/>
  <path d="M392.153 54.013a154.727 154.727 0 0 0-42.512-183.527 154.726 154.726 0 0 0-188.277-6.436l89.944 125.901 140.845 64.062Z" fill="#9F18D9"/>
  <path d="M392.153 54.013a154.732 154.732 0 0 0-76.783-204.907 154.73 154.73 0 0 0-79.005-13.161l14.943 154.006 140.845 64.062Z" fill="#57F2B9"/>
  <path d="M392.153 54.013a154.72 154.72 0 0 0 4.046-118.356 154.734 154.734 0 0 0-80.829-86.551L251.308-10.049l140.845 64.062Z" fill="#EA1889"/>
  <path d="M392.153 54.013A154.732 154.732 0 0 0 377.21-99.993L251.308-10.05l140.845 64.062Z" fill="#9F18D9"/>
  <path d="M392.153 54.013a154.732 154.732 0 0 0 13.161-79.005L251.308-10.05l140.845 64.062Z" fill="#57F2B9"/>
  <circle cx="251.219" cy="-10.287" r="25.009" transform="rotate(24.458 251.219 -10.287)" fill="#D396ED"/>
  <circle cx="251.219" cy="-10.287" r="14.933" transform="rotate(24.458 251.219 -10.287)" fill="#57F2B9"/>
  <defs>
    <radialGradient id="a" cx="0" cy="0" r="1" gradientUnits="userSpaceOnUse" gradientTransform="matrix(443.95465 487.23995 -488.62886 445.22017 136.852 -335.173)">
      <stop offset=".169" stop-color="#4B00CC"/>
      <stop offset="1" stop-color="#4B00CC" stop-opacity="0"/>
    </radialGradient>
  </defs>
</svg>
